image/logo/social_icon_gmail.svg

<svg width="48" height="48" viewBox="0 0 48 48" fill="none" xmlns="http://www.w3.org/2000/svg">
<path d="M21.1881 23.034C20.9637 23.6869 20.9736 24.3976 21.2161 25.044C21.3683 25.4495 21.6071 25.817 21.9161 26.1205C22.225 26.4241 22.5966 26.6565 23.0047 26.8015C23.4129 26.9464 23.8478 27.0005 24.279 26.9598C24.7102 26.9191 25.1273 26.7847 25.5011 26.566C26.0906 26.2207 26.5436 25.6834 26.7841 25.044H24.1101V23.066H28.9131C29.082 23.9575 29.0052 24.8782 28.6912 25.7295C28.3771 26.5808 27.8375 27.3307 27.1301 27.899C26.5069 28.3993 25.7728 28.743 24.9894 28.9011C24.206 29.0593 23.396 29.0273 22.6275 28.8079C21.859 28.5886 21.1542 28.1881 20.5724 27.6402C19.9905 27.0923 19.5484 26.413 19.2833 25.659C19.0181 24.905 18.9375 24.0985 19.0483 23.307C19.159 22.5155 19.4579 21.7621 19.9199 21.1099C20.3819 20.4577 20.9935 19.9257 21.7034 19.5586C22.4133 19.1915 23.2009 19 24.0001 19C25.2131 19.001 26.3261 19.433 27.1911 20.152L25.5711 21.478C25.1916 21.2417 24.7637 21.094 24.3193 21.0459C23.8748 20.9978 23.4253 21.0506 23.004 21.2002C22.5827 21.3498 22.2006 21.5925 21.886 21.9101C21.5715 22.2278 21.3326 22.6123 21.1871 23.035H21.1881V23.034Z" fill="white"/>
<path d="M18 16C17.4696 16 16.9609 16.2107 16.5858 16.5858C16.2107 16.9609 16 17.4696 16 18V30C16 30.5304 16.2107 31.0391 16.5858 31.4142C16.9609 31.7893 17.4696 32 18 32H30C30.5304 32 31.0391 31.7893 31.4142 31.4142C31.7893 31.0391 32 30.5304 32 30V18C32 17.4696 31.7893 16.9609 31.4142 16.5858C31.0391 16.2107 30.5304 16 30 16H18ZM18 14H30C31.0609 14 32.0783 14.4214 32.8284 15.1716C33.5786 15.9217 34 16.9391 34 18V30C34 31.0609 33.5786 32.0783 32.8284 32.8284C32.0783 33.5786 31.0609 34 30 34H18C16.9391 34 15.9217 33.5786 15.1716 32.8284C14.4214 32.0783 14 31.0609 14 30V18C14 16.9391 14.4214 15.9217 15.1716 15.1716C15.9217 14.4214 16.9391 14 18 14V14Z" fill="white"/>
</svg>

<svg xmlns="http://www.w3.org/2000/svg" width="48" height="48" fill="none"><path fill="#fff" d="M21.188 23.034a2.972 2.972 0 0 0 5.596 2.01H24.11v-1.978h4.803a5.005 5.005 0 0 1-3.924 5.835 5 5 0 1 1 2.202-8.749l-1.62 1.326a2.974 2.974 0 0 0-4.384 1.557h.001v-.001Z"/><path fill="#fff" d="M18 16a2 2 0 0 0-2 2v12a2 2 0 0 0 2 2h12a2 2 0 0 0 2-2V18a2 2 0 0 0-2-2H18Zm0-2h12a4 4 0 0 1 4 4v12a4 4 0 0 1-4 4H18a4 4 0 0 1-4-4V18a4 4 0 0 1 4-4Z"/></svg>
